src/img/peaple.svg

<svg xmlns="http://www.w3.org/2000/svg" width="23" height="23" fill="none">
  <path fill="#0499DD" d="M15.8123 13.4167c-1.4375 0-2.5875.3833-3.45.8625 1.3417 1.15 1.9167 2.4917 2.0125 2.5875l.0958.1917v2.1083h7.6667V17.25c-.0958 0-1.6292-3.8333-6.325-3.8333ZM15.8122 11.5c1.8524 0 3.3541-1.50171 3.3541-3.35416 0-1.85246-1.5017-3.35417-3.3541-3.35417-1.8525 0-3.3542 1.50171-3.3542 3.35417 0 1.85245 1.5017 3.35416 3.3542 3.35416ZM3.8335 8.14584c0-1.82084 1.53333-3.35417 3.35416-3.35417 1.82084 0 3.35414 1.53333 3.35414 3.35417 0 1.82083-1.5333 3.35416-3.35414 3.35416-1.82083 0-3.35416-1.53333-3.35416-3.35416Zm3.35416 5.27086C2.49183 13.4167.958496 17.25.958496 17.25v1.9167H13.4168V17.25s-1.5333-3.8333-6.22914-3.8333Z"/>
</svg>

<svg width="23" height="23" viewBox="0 0 23 23" fill="none" xmlns="http://www.w3.org/2000/svg">
<path d="M15.8123 13.4167C14.3748 13.4167 13.2248 13.8 12.3623 14.2792C13.704 15.4292 14.279 16.7709 14.3748 16.8667L14.4706 17.0584V19.1667H22.1373V17.25C22.0415 17.25 20.5081 13.4167 15.8123 13.4167Z" fill="#0499DD"/>
<path d="M15.8122 11.5C17.6646 11.5 19.1663 9.99829 19.1663 8.14584C19.1663 6.29338 17.6646 4.79167 15.8122 4.79167C13.9597 4.79167 12.458 6.29338 12.458 8.14584C12.458 9.99829 13.9597 11.5 15.8122 11.5Z" fill="#0499DD"/>
<path d="M3.8335 8.14584C3.8335 6.325 5.36683 4.79167 7.18766 4.79167C9.0085 4.79167 10.5418 6.325 10.5418 8.14584C10.5418 9.96667 9.0085 11.5 7.18766 11.5C5.36683 11.5 3.8335 9.96667 3.8335 8.14584ZM7.18766 13.4167C2.49183 13.4167 0.958496 17.25 0.958496 17.25V19.1667H13.4168V17.25C13.4168 17.25 11.8835 13.4167 7.18766 13.4167Z" fill="#0499DD"/>
</svg>
